X:1
T:Willie the Weeper
M:4/4
L:1/8
K:G
 B^A| B^A BA BAB-=A| BBA-GG-E E2|F-FF-F FF FF| F2 E2- ^D B,2 B,| EE EG GG GG|\
 B B2 E E2 E2| E6 E2| eB BB BG AG| BA GE E2 EE| E B,2 E E2 BB| BA GE E4|\
